dist/svgs/devui-icons/op/go-cloud-ide2.svg

<?xml version="1.0" encoding="UTF-8"?>
<svg width="16px" height="16px" viewBox="0 0 16 16" version="1.1" xmlns="http://www.w3.org/2000/svg" xmlns:xlink="http://www.w3.org/1999/xlink">
    <title>Artboard</title>
    <desc>Created with Sketch.</desc>
    <g id="Artboard" stroke="none" stroke-width="1" fill="none" fill-rule="evenodd">
        <g id="CloudIDE" fill="#293040">
            <path d="M7,2 C9.05126646,2 10.8140281,3.23523599 11.5850253,5.00244833 C14.0308532,5.04589334 16,7.04298723 16,9.5 C16,11.8160341 14.2503421,13.7234136 12.0007074,13.9724574 L12,14 L4,14 C1.790861,14 0,12.209139 0,10 C0,8.51009657 0.814576791,7.21044775 2.02267051,6.52211339 C2.2624206,3.98551488 4.39933938,2 7,2 Z M4,7 L3,7 L3,12 L4,12 L4,7 Z M13,7 L10,7 L10,12 L13,12 L13,11 L11,11 L11,10 L13,10 L13,9 L11,9 L11,8 L13,8 L13,7 Z M6.5,7 L5,7 L5,12 L6.5,12 C7.88071187,12 9,10.8807119 9,9.5 C9,8.11928813 7.88071187,7 6.5,7 Z M6.5,8 C7.32842712,8 8,8.67157288 8,9.5 C8,10.3284271 7.32842712,11 6.5,11 L6,11 L6,8 L6.5,8 Z" id="形状"></path>
        </g>
    </g>
</svg>

<svg xmlns="http://www.w3.org/2000/svg" viewBox="0 0 16 16"><path fill-rule="evenodd" d="M7 2a5.001 5.001 0 014.585 3.002A4.497 4.497 0 0116 9.5a4.5 4.5 0 01-4 4.472V14H4a4 4 0 01-1.977-7.478A5 5 0 017 2zM4 7H3v5h1V7zm9 0h-3v5h3v-1h-2v-1h2V9h-2V8h2V7zM6.5 7H5v5h1.5a2.5 2.5 0 100-5zm0 1a1.5 1.5 0 010 3H6V8h.5z"/></svg>
